src/assets/images/types/rock.svg

<svg width="512" height="512" viewBox="0 0 512 512" fill="none" xmlns="http://www.w3.org/2000/svg">
<path fill-rule="evenodd" clip-rule="evenodd" d="M395.138 244.757C395.109 244.717 395.097 244.667 395.105 244.618L427.769 54.1518C427.784 54.0641 427.861 54 427.949 54H438.287C438.367 54 438.437 54.0517 438.461 54.1277L512.051 287.131C512.074 287.203 512.049 287.283 511.989 287.33L457.73 329.693C457.649 329.756 457.532 329.74 457.471 329.657L395.138 244.757ZM-1 371.022C-1 371.101 -0.949204 371.171 -0.874109 371.196L110.975 407.767C111.029 407.785 111.089 407.776 111.136 407.744L361.145 235.144C361.187 235.115 361.215 235.07 361.222 235.02L388.032 55.1284C388.049 55.018 387.963 54.9188 387.852 54.9188H166.406C166.351 54.9188 166.3 54.943 166.265 54.9849L-0.957974 256.714C-0.98514 256.747 -1 256.788 -1 256.831V371.022ZM157.583 417.085L279.776 457.112C279.831 457.13 279.892 457.121 279.939 457.087L425.418 352.734C425.499 352.677 425.519 352.566 425.464 352.484L370.928 271.329C370.871 271.244 370.757 271.222 370.673 271.28L157.583 417.085Z" fill="white"/>
</svg>

<svg width="512" height="512" fill="none" xmlns="http://www.w3.org/2000/svg"><path fill-rule="evenodd" clip-rule="evenodd" d="M395.138 244.757a.186.186 0 0 1-.033-.139l32.664-190.466a.183.183 0 0 1 .18-.152h10.338c.08 0 .15.052.174.128l73.59 233.003a.183.183 0 0 1-.062.199l-54.259 42.363a.182.182 0 0 1-.259-.036l-62.333-84.9ZM-1 371.022c0 .079.05.149.126.174l111.849 36.571a.184.184 0 0 0 .161-.023l250.009-172.6a.182.182 0 0 0 .077-.124l26.81-179.892a.182.182 0 0 0-.18-.21H166.406a.183.183 0 0 0-.141.067L-.958 256.714a.183.183 0 0 0-.042.117v114.191Zm158.583 46.063 122.193 40.027a.182.182 0 0 0 .163-.025l145.479-104.353a.182.182 0 0 0 .046-.25l-54.536-81.155a.182.182 0 0 0-.255-.049l-213.09 145.805Z" fill="#fff"/></svg>
